build/img/icon-films.svg

<svg fill="#607B96" height="800" width="800" xmlns="http://www.w3.org/2000/svg" viewBox="0 0 32 32"><path d="M29.6 3.8c-.4-.4-1-.4-1.4 0-.4.4-.4 1 0 1.4 1.1 1.1 1.1 2.8 0 3.9-1 1-2.8 1-3.9 0L23 7.8C20.7 4.9 17.1 3 13 3 5.8 3 0 8.8 0 16s5.8 13 13 13 13-5.8 13-13c0-1.5-.3-2.9-.7-4.2.3.1.7.1 1 .1 1.3 0 2.5-.5 3.3-1.4 1.9-1.9 1.9-4.9 0-6.7zM5.9 8.9C7 7.7 9 7.7 10.1 8.9c.6.5.9 1.3.9 2.1s-.3 1.6-.9 2.1c-.5.6-1.3.9-2.1.9s-1.6-.3-2.1-.9c-.6-.5-.9-1.3-.9-2.1s.3-1.6.9-2.1zm4.2 14.2c-.5.6-1.3.9-2.1.9s-1.6-.3-2.1-.9c-.6-.5-.9-1.3-.9-2.1s.3-1.6.9-2.1c1.1-1.1 3.1-1.1 4.2 0 .6.6.9 1.3.9 2.1s-.3 1.6-.9 2.1zm.8-5c-.6-.5-.9-1.3-.9-2.1s.3-1.6.9-2.1c1.1-1.1 3.1-1.1 4.2 0 .6.6.9 1.3.9 2.1s-.3 1.6-.9 2.1c-.5.6-1.3.9-2.1.9s-1.6-.3-2.1-.9zm9.2 5c-.5.6-1.3.9-2.1.9s-1.6-.3-2.1-.9c-.6-.5-.9-1.3-.9-2.1s.3-1.6.9-2.1c1.1-1.1 3.1-1.1 4.2 0 .6.6.9 1.3.9 2.1s-.3 1.6-.9 2.1zm0-10c-.5.6-1.3.9-2.1.9s-1.6-.3-2.1-.9c-.6-.5-.9-1.3-.9-2.1s.3-1.6.9-2.1c1.1-1.1 3.1-1.1 4.2 0 .6.5.9 1.3.9 2.1s-.3 1.6-.9 2.1z"/></svg>

<!DOCTYPE svg PUBLIC "-//W3C//DTD SVG 1.1//EN" "http://www.w3.org/Graphics/SVG/1.1/DTD/svg11.dtd">
<!-- Uploaded to: SVG Repo, www.svgrepo.com, Transformed by: SVG Repo Mixer Tools -->
<svg fill="#607B96" height="800px" width="800px" version="1.1" id="Icons" xmlns="http://www.w3.org/2000/svg" xmlns:xlink="http://www.w3.org/1999/xlink" viewBox="0 0 32 32" xml:space="preserve">
<g id="SVGRepo_bgCarrier" stroke-width="0"/>
<g id="SVGRepo_tracerCarrier" stroke-linecap="round" stroke-linejoin="round"/>
<g id="SVGRepo_iconCarrier"> <path d="M29.6,3.8c-0.4-0.4-1-0.4-1.4,0c-0.4,0.4-0.4,1,0,1.4c1.1,1.1,1.1,2.8,0,3.9c-1,1-2.8,1-3.9,0l-1.3-1.3c0,0,0,0,0,0 C20.7,4.9,17.1,3,13,3C5.8,3,0,8.8,0,16s5.8,13,13,13s13-5.8,13-13c0-1.5-0.3-2.9-0.7-4.2c0.3,0.1,0.7,0.1,1,0.1 c1.3,0,2.5-0.5,3.3-1.4C31.5,8.6,31.5,5.6,29.6,3.8z M5.9,8.9C7,7.7,9,7.7,10.1,8.9c0,0,0,0,0,0s0,0,0,0C10.7,9.4,11,10.2,11,11 s-0.3,1.6-0.9,2.1C9.6,13.7,8.8,14,8,14s-1.6-0.3-2.1-0.9C5.3,12.6,5,11.8,5,11S5.3,9.4,5.9,8.9z M10.1,23.1C9.6,23.7,8.8,24,8,24 s-1.6-0.3-2.1-0.9C5.3,22.6,5,21.8,5,21s0.3-1.6,0.9-2.1c0,0,0,0,0,0s0,0,0,0c1.1-1.1,3.1-1.1,4.2,0c0.6,0.6,0.9,1.3,0.9,2.1 S10.7,22.6,10.1,23.1z M10.9,18.1C10.3,17.6,10,16.8,10,16s0.3-1.6,0.9-2.1c1.1-1.1,3.1-1.1,4.2,0c0,0,0,0,0,0s0,0,0,0 c0.6,0.6,0.9,1.3,0.9,2.1s-0.3,1.6-0.9,2.1C14.6,18.7,13.8,19,13,19S11.4,18.7,10.9,18.1z M20.1,23.1C19.6,23.7,18.8,24,18,24 s-1.6-0.3-2.1-0.9c0,0,0,0,0,0s0,0,0,0C15.3,22.6,15,21.8,15,21s0.3-1.6,0.9-2.1c1.1-1.1,3.1-1.1,4.2,0c0.6,0.6,0.9,1.3,0.9,2.1 S20.7,22.6,20.1,23.1z M20.1,13.1C20.1,13.1,20.1,13.1,20.1,13.1C20.1,13.1,20.1,13.1,20.1,13.1C19.6,13.7,18.8,14,18,14 s-1.6-0.3-2.1-0.9C15.3,12.6,15,11.8,15,11s0.3-1.6,0.9-2.1c1.1-1.1,3.1-1.1,4.2,0C20.7,9.4,21,10.2,21,11S20.7,12.6,20.1,13.1z"/> </g>
</svg>
